Costumes/bass.svg

<?xml version="1.0" encoding="UTF-8" standalone="no"?>
<svg
   version="1.1"
   width="87.305382"
   height="218.52145"
   viewBox="5 -1 87.305382 218.52145"
   id="svg24"
   sodipodi:docname="bass.svg"
   xmlns:inkscape="http://www.inkscape.org/namespaces/inkscape"
   xmlns:sodipodi="http://sodipodi.sourceforge.net/DTD/sodipodi-0.dtd"
   xmlns="http://www.w3.org/2000/svg"
   xmlns:svg="http://www.w3.org/2000/svg">
  <defs
     id="defs28" />
  <sodipodi:namedview
     id="namedview26"
     pagecolor="#ffffff"
     bordercolor="#000000"
     borderopacity="0.25"
     inkscape:showpageshadow="2"
     inkscape:pageopacity="0.0"
     inkscape:pagecheckerboard="0"
     inkscape:deskcolor="#d1d1d1" />
  <!-- Exported by Scratch - http://scratch.mit.edu/ -->
  <g
     id="ID0.9220489067956805"
     transform="matrix(0.77378094,0,0,0.77378094,-0.22479942,-1.5718375)">
    <path
       id="ID0.26530710607767105"
       fill="#010101"
       d="m 243.7,37.8 h -7.6 l -3.5,25.6 h 14.6 l -3.5,-25.6"
       transform="rotate(8.1249204,425.02953,-994.22993)" />
    <g
       id="ID0.5149549511261284">
      <path
         id="ID0.5629422757774591"
         fill="#653614"
         d="m 240,316.5 c -42,-0.4 -59.4,-21.6 -55.9,-54 1.1,-8.5 8.4,-19.4 8.4,-19.4 0.7,-1.7 0.1,-2.7 -0.7,-4.3 0,0 3.9,0.8 10.4,-1.6 6.5,-2.3 8.5,-29.2 4.9,-32.9 -3.6,-3.7 -5.3,-3.8 -9.4,-3.6 2.6,-4 3.1,-8 1.4,-12 -3,-11.3 -3.1,-22.1 5.7,-31.1 7.1,-6.4 15.2,-12.7 20.5,-14.8 5.4,-2.1 11.9,-8.1 15,-13.3 3.1,5.1 9.1,11.2 14.5,13.3 5.4,2.1 13.5,8.4 20.5,14.8 8.8,9 8.7,19.7 5.7,31.1 -1.6,4 -1.2,8 1.4,12 -4.1,-0.3 -5.8,-0.1 -9.5,3.6 -3.6,3.7 -1.6,30.6 4.9,32.9 6.5,2.3 10.4,1.6 10.4,1.6 -0.8,1.5 -1.4,2.6 -0.7,4.3 0,0 7.3,10.9 8.4,19.4 3.5,32.5 -13.9,53.7 -55.9,54 z"
         transform="rotate(8.1249204,425.02953,-994.22993)" />
      <g
         id="ID0.20665511302649975">
        <path
           id="ID0.8893428915180266"
           fill="#251711"
           d="m 260.4,239.9 c -0.2,-5.5 0,-11.1 -1.3,-16.5 -0.2,-0.9 -0.5,-1.8 -0.9,-2.6 -0.6,-0.9 -1,-2.3 -2.6,-1.6 -1.6,0.7 -1.3,1.6 -0.4,2.7 0.6,0.7 0.4,1.6 -0.3,2.2 -0.5,0.4 -1.1,0.5 -1.7,0.3 -0.9,-0.4 -1.2,-1.1 -1.2,-2 0,-1.9 0.6,-3.4 2.4,-4.3 2.2,-1.1 3.9,-0.3 5.4,1.2 2.3,2.5 3.2,5.7 3.6,9 0.6,4.9 0.6,9.8 0.7,14.8 0,3 0.6,5.9 2.4,8.3 0.5,0.7 1.7,1.3 2.6,0.8 1.3,-0.7 1.3,-0.7 1.2,-2.1 0,-0.7 -0.5,-1.3 -0.6,-2 0,-1.5 0.3,-2.9 2.2,-3 1.9,-0.2 2.8,0.8 2.8,2.7 0,3.6 -2.3,5.8 -5.1,7.1 -3.3,0.7 -6.3,-1.1 -7.7,-4.7 -1.2,-3.4 -1.7,-6.7 -1.5,-10.3 z"
           transform="rotate(8.1249204,425.02953,-994.22993)" />
        <path
           id="ID0.354480754584074"
           fill="#251711"
           d="m 219.6,239.9 c 0.2,-5.5 0,-11.1 1.3,-16.5 0.2,-0.9 0.5,-1.8 0.9,-2.6 0.6,-0.9 1,-2.3 2.6,-1.6 1.6,0.7 1.3,1.6 0.4,2.7 -0.6,0.7 -0.4,1.6 0.3,2.2 0.5,0.4 1.1,0.5 1.7,0.3 0.9,-0.4 1.2,-1.1 1.2,-2 0,-1.9 -0.6,-3.4 -2.4,-4.3 -2.2,-1.1 -3.9,-0.3 -5.4,1.2 -2.3,2.5 -3.2,5.7 -3.6,9 -0.6,4.9 -0.6,9.8 -0.7,14.8 0,3 -0.6,5.9 -2.4,8.3 -0.5,0.7 -1.7,1.3 -2.6,0.8 -1.3,-0.7 -1.3,-0.7 -1.2,-2.1 0,-0.7 0.5,-1.3 0.6,-2 0,-1.5 -0.3,-2.9 -2.2,-3 -1.9,-0.2 -2.8,0.8 -2.8,2.7 0,3.6 2.3,5.8 5.1,7.1 3.3,0.7 6.3,-1.1 7.7,-4.7 1.2,-3.4 1.7,-6.7 1.5,-10.3 z"
           transform="rotate(8.1249204,425.02953,-994.22993)" />
      </g>
    </g>
    <path
       id="ID0.13565756706520915"
       fill="#010101"
       d="m 248.6,196.9 h -17.4 l 4.2,-133.5 h 9 l 4.2,133.5"
       transform="rotate(8.1249204,425.02953,-994.22993)" />
    <path
       id="ID0.8985336157493293"
       fill="#010101"
       d="m 248.6,267 h -17.4 l 6.3,55.2 h 4.7 l 6.4,-55.2"
       transform="rotate(8.1249204,425.02953,-994.22993)" />
    <path
       id="ID0.6415518540889025"
       fill="#010101"
       d="m 228,232.7 h 23.9 v 3.5 H 228 Z"
       transform="rotate(8.1249204,425.02953,-994.22993)" />
    <g
       id="ID0.34207287011668086">
      <path
         id="ID0.3049271940253675"
         fill="#cccccc"
         stroke="#cccccc"
         d="m 237.5,44 -1.4,227.4"
         transform="rotate(8.1249204,425.02953,-994.22993)" />
      <path
         id="ID0.17787467408925295"
         fill="#cccccc"
         stroke="#cccccc"
         d="m 236.1,270.6 c 0.166,0 0.316,0.067 0.424,0.176 0.109,0.108 0.176,0.258 0.176,0.424 0,0.166 -0.067,0.316 -0.176,0.424 -0.108,0.109 -0.258,0.176 -0.424,0.176 -0.166,0 -0.316,-0.067 -0.424,-0.176 -0.109,-0.108 -0.176,-0.258 -0.176,-0.424 0,-0.166 0.067,-0.316 0.176,-0.424 0.108,-0.109 0.258,-0.176 0.424,-0.176 z"
         transform="rotate(8.1249204,425.02953,-994.22993)" />
    </g>
    <g
       id="ID0.32040139054879546">
      <path
         id="ID0.4402471389621496"
         fill="#cccccc"
         stroke="#cccccc"
         d="M 240,44 V 271.4"
         transform="rotate(8.1249204,425.02953,-994.22993)" />
      <path
         id="ID0.6546083181165159"
         fill="#cccccc"
         stroke="#cccccc"
         d="m 240,270.6 c 0.166,0 0.316,0.067 0.424,0.176 0.109,0.108 0.176,0.258 0.176,0.424 0,0.166 -0.067,0.316 -0.176,0.424 -0.108,0.109 -0.258,0.176 -0.424,0.176 -0.166,0 -0.316,-0.067 -0.424,-0.176 -0.109,-0.108 -0.176,-0.258 -0.176,-0.424 0,-0.166 0.067,-0.316 0.176,-0.424 0.108,-0.109 0.258,-0.176 0.424,-0.176 z"
         transform="rotate(8.1249204,425.02953,-994.22993)" />
    </g>
    <g
       id="ID0.692863242700696">
      <path
         id="ID0.6001899261027575"
         fill="#cccccc"
         stroke="#cccccc"
         d="m 242.5,44 1.4,227.4"
         transform="rotate(8.1249204,425.02953,-994.22993)" />
      <path
         id="ID0.21317650191485882"
         fill="#cccccc"
         stroke="#cccccc"
         d="m 243.9,270.6 c 0.166,0 0.316,0.067 0.424,0.176 0.109,0.108 0.176,0.258 0.176,0.424 0,0.166 -0.067,0.316 -0.176,0.424 -0.108,0.109 -0.258,0.176 -0.424,0.176 -0.166,0 -0.316,-0.067 -0.424,-0.176 -0.109,-0.108 -0.176,-0.258 -0.176,-0.424 0,-0.166 0.067,-0.316 0.176,-0.424 0.108,-0.109 0.258,-0.176 0.424,-0.176 z"
         transform="rotate(8.1249204,425.02953,-994.22993)" />
    </g>
    <path
       id="ID0.37864065263420343"
       fill="#cccccc"
       stroke="#cccccc"
       d="m 237.5,43.4 c 0.166,0 0.316,0.067 0.424,0.176 0.109,0.108 0.176,0.258 0.176,0.424 0,0.166 -0.067,0.316 -0.176,0.424 -0.108,0.109 -0.258,0.176 -0.424,0.176 -0.166,0 -0.316,-0.067 -0.424,-0.176 C 236.967,44.316 236.9,44.166 236.9,44 c 0,-0.166 0.067,-0.316 0.176,-0.424 0.108,-0.109 0.258,-0.176 0.424,-0.176 z"
       transform="rotate(8.1249204,425.02953,-994.22993)" />
    <path
       id="ID0.7766310619190335"
       fill="#cccccc"
       stroke="#cccccc"
       d="m 240,43.4 c 0.166,0 0.316,0.067 0.424,0.176 0.109,0.108 0.176,0.258 0.176,0.424 0,0.166 -0.067,0.316 -0.176,0.424 -0.108,0.109 -0.258,0.176 -0.424,0.176 -0.166,0 -0.316,-0.067 -0.424,-0.176 C 239.467,44.316 239.4,44.166 239.4,44 c 0,-0.166 0.067,-0.316 0.176,-0.424 0.108,-0.109 0.258,-0.176 0.424,-0.176 z"
       transform="rotate(8.1249204,425.02953,-994.22993)" />
    <path
       id="ID0.31478452356532216"
       fill="#cccccc"
       stroke="#cccccc"
       d="m 242.5,43.4 c 0.166,0 0.316,0.067 0.424,0.176 0.109,0.108 0.176,0.258 0.176,0.424 0,0.166 -0.067,0.316 -0.176,0.424 -0.108,0.109 -0.258,0.176 -0.424,0.176 -0.166,0 -0.316,-0.067 -0.424,-0.176 C 241.967,44.316 241.9,44.166 241.9,44 c 0,-0.166 0.067,-0.316 0.176,-0.424 0.108,-0.109 0.258,-0.176 0.424,-0.176 z"
       transform="rotate(8.1249204,425.02953,-994.22993)" />
  </g>
</svg>

<svg version="1.1" width="115" height="285" viewBox="5 -1 115 285" xmlns="http://www.w3.org/2000/svg" xmlns:xlink="http://www.w3.org/1999/xlink">
  <!-- Exported by Scratch - http://scratch.mit.edu/ -->
  <g id="ID0.9220489067956805" transform="matrix(0.7737809419631958, 0, 0, 0.7737809419631958, -0.15, 0.05)">
    <path id="ID0.26530710607767105" fill="#010101" d="M 243.700 37.800 L 236.100 37.800 L 232.600 63.400 L 247.200 63.400 L 243.700 37.800 " transform="matrix(0.9899622797966003, 0.14133182168006897, -0.14133182168006897, 0.9899622797966003, -136.25, -70.05)"/>
    <g id="ID0.5149549511261284">
      <path id="ID0.5629422757774591" fill="#653614" d="M 240 316.500 C 198 316.100 180.600 294.900 184.100 262.500 C 185.200 254 192.500 243.100 192.500 243.100 C 193.200 241.400 192.600 240.400 191.800 238.800 C 191.800 238.800 195.700 239.600 202.200 237.200 C 208.700 234.900 210.700 208 207.100 204.300 C 203.500 200.600 201.800 200.500 197.700 200.700 C 200.300 196.700 200.800 192.700 199.100 188.700 C 196.100 177.400 196 166.600 204.800 157.600 C 211.900 151.200 220 144.900 225.300 142.800 C 230.700 140.700 237.200 134.700 240.300 129.500 C 243.400 134.600 249.400 140.700 254.800 142.800 C 260.200 144.900 268.300 151.200 275.300 157.600 C 284.100 166.600 284 177.300 281 188.700 C 279.400 192.700 279.800 196.700 282.400 200.700 C 278.300 200.400 276.600 200.600 272.900 204.300 C 269.300 208 271.300 234.900 277.800 237.200 C 284.300 239.500 288.200 238.800 288.200 238.800 C 287.400 240.300 286.800 241.400 287.500 243.100 C 287.500 243.100 294.800 254 295.900 262.500 C 299.400 295 282 316.200 240 316.500 Z " transform="matrix(0.9899622797966003, 0.14133182168006897, -0.14133182168006897, 0.9899622797966003, -136.25, -70.05)"/>
      <g id="ID0.20665511302649975">
        <path id="ID0.8893428915180266" fill="#251711" d="M 260.400 239.900 C 260.200 234.400 260.400 228.800 259.100 223.400 C 258.900 222.500 258.600 221.600 258.200 220.800 C 257.600 219.900 257.200 218.500 255.600 219.200 C 254 219.900 254.300 220.800 255.200 221.900 C 255.800 222.600 255.600 223.500 254.900 224.100 C 254.400 224.500 253.800 224.600 253.200 224.400 C 252.300 224 252 223.300 252 222.400 C 252 220.500 252.600 219 254.400 218.100 C 256.600 217 258.300 217.800 259.800 219.300 C 262.100 221.800 263 225 263.400 228.300 C 264 233.200 264 238.100 264.100 243.100 C 264.100 246.100 264.700 249 266.500 251.400 C 267 252.100 268.200 252.700 269.100 252.200 C 270.400 251.500 270.400 251.500 270.300 250.100 C 270.300 249.400 269.800 248.800 269.700 248.100 C 269.700 246.600 270 245.200 271.900 245.100 C 273.800 244.900 274.700 245.900 274.700 247.800 C 274.700 251.400 272.400 253.600 269.600 254.900 C 266.300 255.600 263.300 253.800 261.900 250.200 C 260.700 246.800 260.200 243.500 260.400 239.900 Z " transform="matrix(0.9899622797966003, 0.14133182168006897, -0.14133182168006897, 0.9899622797966003, -136.25, -70.05)"/>
        <path id="ID0.354480754584074" fill="#251711" d="M 219.600 239.900 C 219.800 234.400 219.600 228.800 220.900 223.400 C 221.100 222.500 221.400 221.600 221.800 220.800 C 222.400 219.900 222.800 218.500 224.400 219.200 C 226 219.900 225.700 220.800 224.800 221.900 C 224.200 222.600 224.400 223.500 225.100 224.100 C 225.600 224.500 226.200 224.600 226.800 224.400 C 227.700 224 228 223.300 228 222.400 C 228 220.500 227.400 219 225.600 218.100 C 223.400 217 221.700 217.800 220.200 219.300 C 217.900 221.800 217 225 216.600 228.300 C 216 233.200 216 238.100 215.900 243.100 C 215.900 246.100 215.300 249 213.500 251.400 C 213 252.100 211.800 252.700 210.900 252.200 C 209.600 251.500 209.600 251.500 209.700 250.100 C 209.700 249.400 210.200 248.800 210.300 248.100 C 210.300 246.600 210 245.200 208.100 245.100 C 206.200 244.900 205.300 245.900 205.300 247.800 C 205.300 251.400 207.600 253.600 210.400 254.900 C 213.700 255.600 216.700 253.800 218.100 250.200 C 219.300 246.800 219.800 243.500 219.600 239.900 Z " transform="matrix(0.9899622797966003, 0.14133182168006897, -0.14133182168006897, 0.9899622797966003, -136.25, -70.05)"/>
      </g>
    </g>
    <path id="ID0.13565756706520915" fill="#010101" d="M 248.600 196.900 L 231.200 196.900 L 235.400 63.400 L 244.400 63.400 L 248.600 196.900 " transform="matrix(0.9899622797966003, 0.14133182168006897, -0.14133182168006897, 0.9899622797966003, -136.25, -70.05)"/>
    <path id="ID0.8985336157493293" fill="#010101" d="M 248.600 267 L 231.200 267 L 237.500 322.200 L 242.200 322.200 L 248.600 267 " transform="matrix(0.9899622797966003, 0.14133182168006897, -0.14133182168006897, 0.9899622797966003, -136.25, -70.05)"/>
    <path id="ID0.6415518540889025" fill="#010101" d="M 228 232.700 L 251.900 232.700 L 251.900 236.200 L 228 236.200 L 228 232.700 Z " transform="matrix(0.9899622797966003, 0.14133182168006897, -0.14133182168006897, 0.9899622797966003, -136.25, -70.05)"/>
    <g id="ID0.34207287011668086">
      <path id="ID0.3049271940253675" fill="#CCCCCC" stroke="#CCCCCC" d="M 237.500 44 L 236.100 271.400 " transform="matrix(0.9899622797966003, 0.14133182168006897, -0.14133182168006897, 0.9899622797966003, -136.25, -70.05)"/>
      <path id="ID0.17787467408925295" fill="#CCCCCC" stroke="#CCCCCC" d="M 236.100 270.600 C 236.266 270.600 236.416 270.667 236.524 270.776 C 236.633 270.884 236.700 271.034 236.700 271.200 C 236.700 271.366 236.633 271.516 236.524 271.624 C 236.416 271.733 236.266 271.800 236.100 271.800 C 235.934 271.800 235.784 271.733 235.676 271.624 C 235.567 271.516 235.500 271.366 235.500 271.200 C 235.500 271.034 235.567 270.884 235.676 270.776 C 235.784 270.667 235.934 270.600 236.100 270.600 Z " transform="matrix(0.9899622797966003, 0.14133182168006897, -0.14133182168006897, 0.9899622797966003, -136.25, -70.05)"/>
    </g>
    <g id="ID0.32040139054879546">
      <path id="ID0.4402471389621496" fill="#CCCCCC" stroke="#CCCCCC" d="M 240 44 L 240 271.400 " transform="matrix(0.9899622797966003, 0.14133182168006897, -0.14133182168006897, 0.9899622797966003, -136.25, -70.05)"/>
      <path id="ID0.6546083181165159" fill="#CCCCCC" stroke="#CCCCCC" d="M 240 270.600 C 240.166 270.600 240.316 270.667 240.424 270.776 C 240.533 270.884 240.600 271.034 240.600 271.200 C 240.600 271.366 240.533 271.516 240.424 271.624 C 240.316 271.733 240.166 271.800 240 271.800 C 239.834 271.800 239.684 271.733 239.576 271.624 C 239.467 271.516 239.400 271.366 239.400 271.200 C 239.400 271.034 239.467 270.884 239.576 270.776 C 239.684 270.667 239.834 270.600 240 270.600 Z " transform="matrix(0.9899622797966003, 0.14133182168006897, -0.14133182168006897, 0.9899622797966003, -136.25, -70.05)"/>
    </g>
    <g id="ID0.692863242700696">
      <path id="ID0.6001899261027575" fill="#CCCCCC" stroke="#CCCCCC" d="M 242.500 44 L 243.900 271.400 " transform="matrix(0.9899622797966003, 0.14133182168006897, -0.14133182168006897, 0.9899622797966003, -136.25, -70.05)"/>
      <path id="ID0.21317650191485882" fill="#CCCCCC" stroke="#CCCCCC" d="M 243.900 270.600 C 244.066 270.600 244.216 270.667 244.324 270.776 C 244.433 270.884 244.500 271.034 244.500 271.200 C 244.500 271.366 244.433 271.516 244.324 271.624 C 244.216 271.733 244.066 271.800 243.900 271.800 C 243.734 271.800 243.584 271.733 243.476 271.624 C 243.367 271.516 243.300 271.366 243.300 271.200 C 243.300 271.034 243.367 270.884 243.476 270.776 C 243.584 270.667 243.734 270.600 243.900 270.600 Z " transform="matrix(0.9899622797966003, 0.14133182168006897, -0.14133182168006897, 0.9899622797966003, -136.25, -70.05)"/>
    </g>
    <path id="ID0.37864065263420343" fill="#CCCCCC" stroke="#CCCCCC" d="M 237.500 43.400 C 237.666 43.400 237.816 43.467 237.924 43.576 C 238.033 43.684 238.100 43.834 238.100 44 C 238.100 44.166 238.033 44.316 237.924 44.424 C 237.816 44.533 237.666 44.600 237.500 44.600 C 237.334 44.600 237.184 44.533 237.076 44.424 C 236.967 44.316 236.900 44.166 236.900 44 C 236.900 43.834 236.967 43.684 237.076 43.576 C 237.184 43.467 237.334 43.400 237.500 43.400 Z " transform="matrix(0.9899622797966003, 0.14133182168006897, -0.14133182168006897, 0.9899622797966003, -136.25, -70.05)"/>
    <path id="ID0.7766310619190335" fill="#CCCCCC" stroke="#CCCCCC" d="M 240 43.400 C 240.166 43.400 240.316 43.467 240.424 43.576 C 240.533 43.684 240.600 43.834 240.600 44 C 240.600 44.166 240.533 44.316 240.424 44.424 C 240.316 44.533 240.166 44.600 240 44.600 C 239.834 44.600 239.684 44.533 239.576 44.424 C 239.467 44.316 239.400 44.166 239.400 44 C 239.400 43.834 239.467 43.684 239.576 43.576 C 239.684 43.467 239.834 43.400 240 43.400 Z " transform="matrix(0.9899622797966003, 0.14133182168006897, -0.14133182168006897, 0.9899622797966003, -136.25, -70.05)"/>
    <path id="ID0.31478452356532216" fill="#CCCCCC" stroke="#CCCCCC" d="M 242.500 43.400 C 242.666 43.400 242.816 43.467 242.924 43.576 C 243.033 43.684 243.100 43.834 243.100 44 C 243.100 44.166 243.033 44.316 242.924 44.424 C 242.816 44.533 242.666 44.600 242.500 44.600 C 242.334 44.600 242.184 44.533 242.076 44.424 C 241.967 44.316 241.900 44.166 241.900 44 C 241.900 43.834 241.967 43.684 242.076 43.576 C 242.184 43.467 242.334 43.400 242.500 43.400 Z " transform="matrix(0.9899622797966003, 0.14133182168006897, -0.14133182168006897, 0.9899622797966003, -136.25, -70.05)"/>
  </g>
</svg>
